X:182
T:Matt People's
R:Reel
D:Molloy, Peoples, Brady
S:Henrik Norbeck?
Z:Transcription:Henrik Norbeck(?), chords:Mike Long
M:C|
L:1/8
K:G
"Am"A2eA BAeA|"G"B2gB BAGB|"Am"A2eA BAeA|[1 "G"BAGA BAAG:|[2 "G"BAGB "Am"~A3e|]\
"Am"ae~e2 agef|
"G"gB~B2 g2fg|"Am"ae~e2 aged|"G"B2GA "Am"BA~A2|\
"Am"ae~e2 agef|"G"gB~B2 g2fg|"Em"afge fded|"G"B2GA BAAG|]
